X: 105
T: Chwalcie Pana prze dobroć Jego nieprzebraną,
C: Mikołaj Gomółka
%%abc-version 2.0
%%abcx-abcm2ps-target-version 5.9.1 (29 Sep 2008)
%%abc-creator hum2abc beta
%%abcx-conversion-date 2021/10/04 07:59:10
%%abc-edited-by Leszek Kubiak
%%abcx-initial-encoding-date data 2020-02-18
%%humdrum-veritas 3377825692
%%humdrum-veritas-data 503889977
%%linebreak <none>
%%barnumbers 0
L: 1/4
M: C|
N: Derived from pl-wn--sd-xvi-qu-273--106_gomolka-mikolaj--chwalcie-pana-prze-dobroc-jego-nieprzebrana.krn
%%staves [1 2 3 4]
V: 1
V: 2 clef=alto
V: 3 clef=alto
V: 4 clef=bass
K: F
[V:1] A4A2A2 [|] 
[V:2] F4E2^F2 [|] 
[V:3] D4^C2D2 [|] 
[V:4] D,4A,,2D,2 [|] 
[V:1] B2B2A2A2 [|] 
[V:2] G2G,4A,2 [|] 
[V:3] D2x2D3C [|] 
[V:4] G,,2G,4^F,2 [|] 
[V:1] G2B2>A2A4 [|] 
[V:2] B,2B,2>C2D2 [|] 
[V:3] B,A,G,2G,2A,2 [|] 
[V:4] G,2G,,2G,,2^F,,2 [|] 
[V:1] G2A2G2 [|] 
[V:2] D2>E2F2D2 [|] 
[V:3] B,2B,2A,2=B,2 [|] 
[V:4] G,,2G,,2D,2G,2 [|] 
[V:1] G2G2A4 [|] 
[V:2] E2E2F4 [|] 
[V:3] C2C2C4 [|] 
[V:4] C,2C,2F,,4 [|] 
[V:1] G2E2E2E2 [|] 
[V:2] E2C2C2C2 [|] 
[V:3] G,2G,2G,2G,2 [|] 
[V:4] C,2C,2C,2C,2 [|] 
[V:1] F2>E2D2D4 [|] 
[V:2] D2>C2B,2F,2 [|] 
[V:3] B,2F,2>G,2A,2 [|] 
[V:4] B,,2>C,2D,E,F,2 [|] 
[V:1] C2D32 [|] 
[V:2] G,4A,32 [|] 
[V:3] G,4^F,32 [|] 
[V:4] _E,4D,32 [|] 


